care/src/image/Frame5.svg

<svg width="86" height="72" viewBox="0 0 86 72" fill="none" xmlns="http://www.w3.org/2000/svg">
<g clip-path="url(#clip0_1_230)">
<path d="M71.2238 14.0108H14.2054V71.1274H71.2238V14.0108Z" fill="url(#paint0_linear_1_230)"/>
<path d="M13.9695 14.0108C14.0383 14.0108 14.1071 14.0383 14.2054 14.0658C14.2054 33.068 14.2054 52.0702 14.2054 71.0999C9.79143 71.421 6.06558 70.3842 3.10652 67.7234C1.01257 65.8332 4.08664e-06 63.6128 4.08664e-06 61.0987C4.08664e-06 52.1986 4.08664e-06 43.3077 4.08664e-06 34.4076C4.08664e-06 31.0127 -0.00982666 27.6178 -0.00982666 24.223C-0.00982666 20.1216 2.35938 17.1396 6.7144 15.121C8.95581 14.0934 11.443 13.9374 13.9695 14.0108Z" fill="url(#paint1_linear_1_230)"/>
<path d="M61.2652 14.0016C63.8114 14.0016 64.067 14.0016 66.6033 14.0016C66.6033 33.068 66.6033 52.0702 66.6033 71.1091C49.2914 71.1091 36.1968 71.1091 18.8259 71.1091C18.8259 52.0794 18.8259 33.0772 18.8259 14.02C21.3622 14.02 21.9127 14.02 24.4982 14.02C24.4982 13.7814 24.4982 13.5979 24.4982 13.4236C24.4982 11.3775 24.508 9.32218 24.4884 7.27607C24.4687 5.84472 24.8816 4.59687 26.081 3.62428C26.9264 2.9453 27.8996 2.59664 29.0007 2.59664C32.412 2.58746 35.8134 2.58746 39.2247 2.58746C44.956 2.58746 50.6972 2.59664 56.4285 2.58746C57.9326 2.58746 59.1811 3.04623 60.1642 4.11057C60.9506 4.96388 61.2455 5.964 61.2455 7.08339C61.2357 9.2396 61.2455 11.3958 61.2455 13.552C61.2357 13.6713 61.2455 13.8089 61.2652 14.0016ZM30.6523 14.0016C30.8882 14.0016 31.0651 14.0016 31.2421 14.0016C33.9554 14.0016 36.6785 14.0016 39.3918 14.0016C44.4645 14.0016 49.547 14.0016 54.6196 14.0108C55.0227 14.0108 55.1112 13.8915 55.1112 13.5337C55.0915 11.928 55.1112 10.3223 55.1112 8.71661C55.1112 8.58815 55.0915 8.45969 55.0718 8.32206C46.9123 8.32206 38.8019 8.32206 30.6523 8.32206C30.6523 10.2122 30.6523 12.0656 30.6523 14.0016Z" fill="white"/>
<mask id="mask0_1_230" style="mask-type:alpha" maskUnits="userSpaceOnUse" x="18" y="2" width="49" height="70">
<path d="M61.2652 14.0016C63.8114 14.0016 64.067 14.0016 66.6033 14.0016C66.6033 33.068 66.6033 52.0702 66.6033 71.1091C49.2914 71.1091 36.1968 71.1091 18.8259 71.1091C18.8259 52.0794 18.8259 33.0772 18.8259 14.02C21.3622 14.02 21.9127 14.02 24.4982 14.02C24.4982 13.7814 24.4982 13.5979 24.4982 13.4236C24.4982 11.3775 24.508 9.32218 24.4884 7.27607C24.4687 5.84472 24.8816 4.59687 26.081 3.62428C26.9264 2.9453 27.8996 2.59664 29.0007 2.59664C32.412 2.58746 35.8134 2.58746 39.2247 2.58746C44.956 2.58746 50.6971 2.59664 56.4285 2.58746C57.9326 2.58746 59.1811 3.04623 60.1642 4.11057C60.9506 4.96388 61.2455 5.964 61.2455 7.08339C61.2357 9.2396 61.2455 11.3958 61.2455 13.552C61.2357 13.6713 61.2455 13.8089 61.2652 14.0016ZM30.6523 14.0016C30.8882 14.0016 31.0651 14.0016 31.2421 14.0016C33.9554 14.0016 36.6785 14.0016 39.3918 14.0016C44.4645 14.0016 49.5469 14.0016 54.6196 14.0108C55.0227 14.0108 55.1111 13.8915 55.1111 13.5337C55.0915 11.928 55.1111 10.3223 55.1111 8.71661C55.1111 8.58815 55.0915 8.45969 55.0718 8.32206C46.9123 8.32206 38.8019 8.32206 30.6523 8.32206C30.6523 10.2122 30.6523 12.0656 30.6523 14.0016Z" fill="#F7F9FC"/>
</mask>
<g mask="url(#mask0_1_230)">
<path d="M62.2457 0H22.5V14.02H62.2457V0Z" fill="url(#paint2_linear_1_230)"/>
</g>
<path d="M85.7143 24.0762C85.7143 20.2959 83.5024 17.4791 79.5701 15.433C77.1517 14.1759 74.4089 13.9374 71.5973 13.9924C71.1648 14.0016 71.2238 14.2126 71.2238 14.4328C71.2238 21.0391 71.2238 27.6362 71.2238 34.2425C71.2238 45.8493 71.2238 57.447 71.2139 69.0538C71.2139 69.7236 71.2139 70.3934 71.2139 71.1183C72.9835 71.1733 74.6645 71.1825 76.3161 70.8155C81.9 69.586 85.7045 65.7048 85.7045 61.1263C85.7241 48.7854 85.7143 36.4262 85.7143 24.0762Z" fill="url(#paint3_linear_1_230)"/>
<path d="M47.3744 46.7852C47.3744 47.9688 47.3744 49.0882 47.3744 50.2168C47.3744 51.4921 47.3744 52.7675 47.3744 54.0337C47.3744 54.7953 46.9615 55.199 46.1554 55.199C43.9336 55.2082 41.7119 55.2082 39.4901 55.199C38.7528 55.199 38.3399 54.7677 38.3399 54.0429C38.3399 51.7674 38.3399 49.4919 38.3399 47.2164C38.3399 47.088 38.3399 46.9503 38.3399 46.7852C38.1531 46.7852 38.0155 46.7852 37.8681 46.7852C35.4694 46.7852 33.0608 46.7852 30.6621 46.7852C29.7085 46.7852 29.3153 46.4273 29.3153 45.5373C29.3153 43.5646 29.3153 41.5919 29.3153 39.6192C29.3153 38.72 29.6987 38.3622 30.6523 38.3622C33.0412 38.3622 35.43 38.3622 37.8189 38.3622C37.9762 38.3622 38.1237 38.3622 38.3301 38.3622C38.3301 38.2154 38.3301 38.0961 38.3301 37.9768C38.3301 35.7013 38.3301 33.4258 38.3301 31.1504C38.3301 30.3062 38.7332 29.9392 39.6376 29.9392C41.7512 29.9392 43.8648 29.9392 45.9784 29.9392C46.9713 29.9392 47.3547 30.2879 47.3547 31.2329C47.3646 33.4901 47.3547 35.738 47.3547 37.9952C47.3547 38.1053 47.3547 38.2154 47.3547 38.3714C47.512 38.3714 47.6497 38.3714 47.7775 38.3714C50.2155 38.3714 52.6535 38.3714 55.0915 38.3805C55.9861 38.3805 56.3695 38.7476 56.3695 39.5825C56.3695 41.5644 56.3695 43.5463 56.3695 45.5282C56.3695 46.4365 55.996 46.7852 55.0424 46.7852C52.6142 46.7852 50.186 46.7852 47.7676 46.7944C47.6693 46.7852 47.5513 46.7852 47.3744 46.7852Z" fill="url(#paint4_linear_1_230)"/>
</g>
<defs>
<linearGradient id="paint0_linear_1_230" x1="14.2069" y1="42.5657" x2="71.2211" y2="42.5657" gradientUnits="userSpaceOnUse">
<stop stop-color="#B0F4FF"/>
<stop offset="1" stop-color="#69DCFC"/>
</linearGradient>
<linearGradient id="paint1_linear_1_230" x1="4.08716e-06" y1="42.5747" x2="14.2069" y2="42.5747" gradientUnits="userSpaceOnUse">
<stop stop-color="#6CBCFC"/>
<stop offset="1" stop-color="#458DFC"/>
</linearGradient>
<linearGradient id="paint2_linear_1_230" x1="22.4959" y1="7.00849" x2="62.244" y2="7.00849" gradientUnits="userSpaceOnUse">
<stop stop-color="#6CBCFC"/>
<stop offset="1" stop-color="#458DFC"/>
</linearGradient>
<linearGradient id="paint3_linear_1_230" x1="71.2163" y1="42.569" x2="85.7151" y2="42.569" gradientUnits="userSpaceOnUse">
<stop stop-color="#6CBCFC"/>
<stop offset="1" stop-color="#458DFC"/>
</linearGradient>
<linearGradient id="paint4_linear_1_230" x1="29.3213" y1="42.5783" x2="56.3892" y2="42.5783" gradientUnits="userSpaceOnUse">
<stop stop-color="#6888C8"/>
<stop offset="1" stop-color="#458DFC"/>
</linearGradient>
<clipPath id="clip0_1_230">
<rect width="85.7143" height="71.1549" fill="white"/>
</clipPath>
</defs>
</svg>

<svg width="86" height="72" fill="none" xmlns="http://www.w3.org/2000/svg"><g clip-path="url(#a)"><path d="M71.224 14.01H14.205v57.117h57.019V14.011z" fill="url(#b)"/><path d="M13.97 14.01c.068 0 .137.028.235.056V71.1c-4.414.321-8.14-.716-11.098-3.377C1.013 65.833 0 63.613 0 61.1V34.408c0-3.395-.01-6.79-.01-10.185 0-4.101 2.37-7.083 6.724-9.102 2.242-1.028 4.729-1.184 7.255-1.11z" fill="url(#c)"/><path d="M61.265 14.002h5.338v57.107H18.826V14.02h5.672v-.596c0-2.046.01-4.102-.01-6.148-.02-1.431.394-2.68 1.593-3.652a4.539 4.539 0 0 1 2.92-1.027c3.411-.01 6.812-.01 10.224-.01 5.731 0 11.472.01 17.203 0 1.505 0 2.753.46 3.736 1.524.787.853 1.081 1.853 1.081 2.972-.01 2.157 0 4.313 0 6.469-.01.12 0 .257.02.45zm-30.613 0h8.74c5.072 0 10.155 0 15.228.009.403 0 .491-.12.491-.477-.02-1.606 0-3.212 0-4.817 0-.129-.02-.257-.04-.395H30.653v5.68z" fill="#fff"/><mask id="d" style="mask-type:alpha" maskUnits="userSpaceOnUse" x="18" y="2" width="49" height="70"><path d="M61.265 14.002h5.338v57.107H18.826V14.02h5.672v-.596c0-2.046.01-4.102-.01-6.148-.02-1.431.394-2.68 1.593-3.652a4.539 4.539 0 0 1 2.92-1.027c3.411-.01 6.812-.01 10.224-.01 5.731 0 11.472.01 17.203 0 1.505 0 2.753.46 3.736 1.524.787.853 1.081 1.853 1.081 2.972-.01 2.157 0 4.313 0 6.469-.01.12 0 .257.02.45zm-30.613 0h8.74c5.072 0 10.155 0 15.228.009.403 0 .491-.12.491-.477-.02-1.606 0-3.212 0-4.817 0-.129-.02-.257-.04-.395H30.653v5.68z" fill="#F7F9FC"/></mask><g mask="url(#d)"><path d="M62.246 0H22.5v14.02h39.746V0z" fill="url(#e)"/></g><path d="M85.714 24.076c0-3.78-2.212-6.597-6.144-8.643-2.418-1.257-5.161-1.496-7.973-1.44-.432.009-.373.22-.373.44v19.81c0 11.606 0 23.204-.01 34.81v2.065c1.77.055 3.45.065 5.102-.302 5.584-1.23 9.388-5.111 9.388-9.69.02-12.34.01-24.7.01-37.05z" fill="url(#f)"/><path d="M47.374 46.785V54.034c0 .761-.413 1.165-1.219 1.165-2.221.01-4.443.01-6.665 0-.737 0-1.15-.431-1.15-1.156v-7.257H30.662c-.953 0-1.347-.359-1.347-1.249V39.62c0-.899.384-1.257 1.337-1.257h7.678V31.15c0-.844.403-1.21 1.308-1.21h6.34c.993 0 1.377.348 1.377 1.293.01 2.257 0 4.505 0 6.762v.376h.423c2.438 0 4.876 0 7.314.01.894 0 1.278.367 1.278 1.202v5.945c0 .909-.374 1.257-1.328 1.257-2.428 0-4.856 0-7.274.01-.099-.01-.217-.01-.394-.01z" fill="url(#g)"/></g><defs><linearGradient id="b" x1="14.207" y1="42.566" x2="71.221" y2="42.566" gradientUnits="userSpaceOnUse"><stop stop-color="#B0F4FF"/><stop offset="1" stop-color="#69DCFC"/></linearGradient><linearGradient id="c" x1="0" y1="42.575" x2="14.207" y2="42.575" gradientUnits="userSpaceOnUse"><stop stop-color="#6CBCFC"/><stop offset="1" stop-color="#458DFC"/></linearGradient><linearGradient id="e" x1="22.496" y1="7.008" x2="62.244" y2="7.008" gradientUnits="userSpaceOnUse"><stop stop-color="#6CBCFC"/><stop offset="1" stop-color="#458DFC"/></linearGradient><linearGradient id="f" x1="71.216" y1="42.569" x2="85.715" y2="42.569" gradientUnits="userSpaceOnUse"><stop stop-color="#6CBCFC"/><stop offset="1" stop-color="#458DFC"/></linearGradient><linearGradient id="g" x1="29.321" y1="42.578" x2="56.389" y2="42.578" gradientUnits="userSpaceOnUse"><stop stop-color="#6888C8"/><stop offset="1" stop-color="#458DFC"/></linearGradient><clipPath id="a"><path fill="#fff" d="M0 0h85.714v71.155H0z"/></clipPath></defs></svg>
